app/images/nav_icons/24to7.svg

<svg width="52" height="54" viewBox="0 0 52 54" fill="none" xmlns="http://www.w3.org/2000/svg">
<path opacity="0.34" fill-rule="evenodd" clip-rule="evenodd" d="M41.9843 33.5936C47.395 33.5936 51.7812 37.9867 51.7812 43.4062C51.7812 48.8254 47.395 53.2187 41.9843 53.2187C36.5736 53.2187 32.1875 48.8254 32.1875 43.4062C32.1875 37.9867 36.5736 33.5936 41.9843 33.5936Z" fill="#A3BBC8"/>
<path fill-rule="evenodd" clip-rule="evenodd" d="M42.6912 3.62302C43.2077 3.61222 43.6385 4.02042 43.6509 4.53807L43.7471 8.59872C43.7595 9.11607 43.3498 9.54582 42.8322 9.55827L38.772 9.65432H38.7493C38.2416 9.65432 37.8245 9.24977 37.8124 8.73957C37.8 8.22192 38.2097 7.79182 38.7274 7.78042L40.5701 7.73662C36.435 4.04982 31.0407 1.96937 25.4632 1.96937C12.957 1.96937 2.7822 12.1437 2.7822 24.6505C2.7822 30.7903 5.19705 36.5412 9.5815 40.843C9.95115 41.2055 9.95685 41.7986 9.5942 42.1682C9.41065 42.3562 9.168 42.4493 8.92495 42.4493C8.68815 42.4493 8.45105 42.3604 8.26865 42.1807C3.5215 37.5246 0.907104 31.2985 0.907104 24.6498C0.907104 11.1096 11.923 0.0944214 25.4634 0.0944214C28.9479 0.0944214 32.3157 0.809171 35.4726 2.22032C37.8028 3.26122 39.9284 4.64072 41.8177 6.33197L41.7762 4.58317C41.7639 4.06487 42.1736 3.63577 42.6912 3.62302ZM45.0198 11.3695C45.4591 11.0956 46.0374 11.2296 46.3116 11.6691C48.737 15.5566 50.0191 20.046 50.0191 24.6498C50.0191 38.1896 39.0034 49.2061 25.4634 49.2061C20.1029 49.2061 15.01 47.5093 10.7351 44.3C10.3208 43.9899 10.2372 43.4013 10.5479 42.9876C10.8588 42.5732 11.4466 42.4898 11.8605 42.8006C15.8085 45.7642 20.5122 47.3302 25.4632 47.3302C37.9693 47.3302 48.144 37.1563 48.144 24.6498C48.144 20.3963 46.9602 16.2511 44.7205 12.6617C44.4465 12.2224 44.5804 11.644 45.0198 11.3695ZM15.7316 33.6084H23.2816C23.7993 33.6084 24.2189 34.0283 24.2189 34.5463C24.2189 35.0633 23.7991 35.4836 23.2812 35.4836H13.4679C13.0889 35.4836 12.7471 35.2555 12.602 34.9052C12.4569 34.5545 12.5371 34.1512 12.8052 33.8829L19.1489 27.5398C21.2093 25.4796 22.3439 22.7402 22.3439 19.826C22.3439 17.6371 20.5633 15.8569 18.3748 15.8569C16.1863 15.8569 14.4057 17.6371 14.4057 19.826C14.4057 20.344 13.986 20.7637 13.4682 20.7637C12.9503 20.7637 12.5306 20.344 12.5306 19.826C12.5306 16.6037 15.1524 13.9817 18.3748 13.9817C21.5974 13.9817 24.219 16.6037 24.219 19.826C24.219 23.2406 22.8893 26.4512 20.4748 28.865L15.7316 33.6084ZM38.3214 27.1705H35.7201V25.6538C35.7201 25.1361 35.3004 24.7158 34.7826 24.7158C34.2647 24.7158 33.8449 25.1361 33.8449 25.6538V27.1705H28.5588L33.8449 18.3185V22.5281C33.8449 23.0461 34.2647 23.4654 34.7826 23.4654C35.3004 23.4654 35.7201 23.0461 35.7201 22.5281V14.9193C35.7201 14.916 35.7193 14.9141 35.7191 14.9108C35.7159 14.5951 35.5541 14.2882 35.2632 14.1147C34.8185 13.8493 34.243 13.9947 33.9774 14.4385L26.1019 27.6274C25.9288 27.9166 25.9249 28.2774 26.0915 28.5706C26.258 28.8644 26.5695 29.0458 26.9068 29.0458H33.8449V34.5463C33.8449 35.0633 34.2648 35.4836 34.7827 35.4836C35.3004 35.4836 35.7202 35.0633 35.7202 34.5463V29.0458H38.3214C38.8393 29.0458 39.2589 28.6255 39.2589 28.1078C39.2589 27.5901 38.839 27.1705 38.3214 27.1705Z" fill="#A3BBC8"/>
</svg>

<svg width="52" height="54" fill="none" xmlns="http://www.w3.org/2000/svg"><path opacity=".34" fill-rule="evenodd" clip-rule="evenodd" d="M41.984 33.594c5.411 0 9.797 4.393 9.797 9.812 0 5.42-4.386 9.813-9.797 9.813-5.41 0-9.797-4.394-9.797-9.813 0-5.42 4.387-9.812 9.797-9.812z" fill="#A3BBC8"/><path fill-rule="evenodd" clip-rule="evenodd" d="M42.691 3.623a.94.94 0 01.96.915l.096 4.06a.938.938 0 01-.915.96l-4.06.096h-.023a.937.937 0 01-.022-1.874l1.843-.043a22.76 22.76 0 00-15.107-5.768c-12.506 0-22.68 10.175-22.68 22.682 0 6.14 2.414 11.89 6.799 16.192a.937.937 0 11-1.313 1.338C3.52 37.525.907 31.299.907 24.65.907 11.11 11.923.094 25.463.094c3.485 0 6.853.715 10.01 2.126a24.405 24.405 0 016.345 4.112l-.042-1.749a.938.938 0 01.915-.96zm2.329 7.746a.938.938 0 011.292.3 24.496 24.496 0 013.707 12.98c0 13.54-11.016 24.557-24.556 24.557A24.349 24.349 0 0110.735 44.3a.937.937 0 111.126-1.5 22.486 22.486 0 0013.602 4.53c12.506 0 22.681-10.174 22.681-22.68 0-4.254-1.184-8.399-3.423-11.988a.938.938 0 01.299-1.293zM15.732 33.61h7.55a.938.938 0 010 1.875h-9.814a.937.937 0 01-.663-1.601l6.344-6.343c2.06-2.06 3.195-4.8 3.195-7.714 0-2.189-1.78-3.97-3.97-3.97a3.973 3.973 0 00-3.968 3.97.938.938 0 11-1.875 0 5.851 5.851 0 015.844-5.844 5.851 5.851 0 015.844 5.844 12.7 12.7 0 01-3.744 9.039l-4.743 4.743zm22.59-6.439H35.72v-1.516a.938.938 0 10-1.875 0v1.517h-5.286l5.286-8.852v4.21a.937.937 0 101.875 0v-7.618a.936.936 0 00-1.743-.473l-7.875 13.19a.937.937 0 00.805 1.418h6.938v5.5a.938.938 0 001.875 0v-5.5h2.601a.938.938 0 000-1.875z" fill="#A3BBC8"/></svg>
